Numix-Circle/48x48/apps/unity-editor-icon.svg

<?xml version="1.0" encoding="UTF-8" standalone="no"?>
<svg
   xmlns:dc="http://purl.org/dc/elements/1.1/"
   xmlns:cc="http://creativecommons.org/ns#"
   xmlns:rdf="http://www.w3.org/1999/02/22-rdf-syntax-ns#"
   xmlns:svg="http://www.w3.org/2000/svg"
   xmlns="http://www.w3.org/2000/svg"
   xmlns:xlink="http://www.w3.org/1999/xlink"
   xmlns:sodipodi="http://sodipodi.sourceforge.net/DTD/sodipodi-0.dtd"
   xmlns:inkscape="http://www.inkscape.org/namespaces/inkscape"
   viewBox="0 0 48 48"
   id="svg2"
   version="1.1"
   inkscape:version="0.91 r13725"
   sodipodi:docname="unity-editor-icon.svg">
  <metadata
     id="metadata87">
    <rdf:RDF>
      <cc:Work
         rdf:about="">
        <dc:format>image/svg+xml</dc:format>
        <dc:type
           rdf:resource="http://purl.org/dc/dcmitype/StillImage" />
        <dc:title />
      </cc:Work>
    </rdf:RDF>
  </metadata>
  <sodipodi:namedview
     pagecolor="#ffffff"
     bordercolor="#666666"
     borderopacity="1"
     objecttolerance="10"
     gridtolerance="10"
     guidetolerance="10"
     inkscape:pageopacity="0"
     inkscape:pageshadow="2"
     inkscape:window-width="1366"
     inkscape:window-height="722"
     id="namedview85"
     showgrid="false"
     inkscape:zoom="12.255319"
     inkscape:cx="23.805424"
     inkscape:cy="23.5"
     inkscape:window-x="0"
     inkscape:window-y="0"
     inkscape:window-maximized="1"
     inkscape:current-layer="svg2">
    <inkscape:grid
       type="xygrid"
       id="grid3355" />
  </sodipodi:namedview>
  <defs
     id="defs4">
    <linearGradient
       id="linearGradient3764"
       x1="1"
       x2="47"
       gradientUnits="userSpaceOnUse"
       gradientTransform="matrix(0,-1,1,0,-1.5e-6,47.999998)"
       y1="0"
       y2="0"
       spreadMethod="pad">
      <stop
         style="stop-color:#2a3644;stop-opacity:1"
         id="stop7" />
      <stop
         offset="1"
         style="stop-color:#222c38;stop-opacity:1"
         id="stop9" />
    </linearGradient>
    <linearGradient
       inkscape:collect="always"
       xlink:href="#linearGradient3764"
       id="linearGradient4244"
       x1="24"
       y1="1"
       x2="24"
       y2="47"
       gradientUnits="userSpaceOnUse" />
  </defs>
  <path
     inkscape:connector-curvature="0"
     id="path31"
     style="opacity:0.05"
     d="m 36.31,5 c 5.859,4.062 9.688,10.831 9.688,18.5 0,12.426 -10.07,22.5 -22.5,22.5 -7.669,0 -14.438,-3.828 -18.5,-9.688 1.037,1.822 2.306,3.499 3.781,4.969 4.085,3.712 9.514,5.969 15.469,5.969 12.703,0 23,-10.298 23,-23 0,-5.954 -2.256,-11.384 -5.969,-15.469 C 39.81,7.306 38.132,6.037 36.31,5 Z m 4.969,3.781 c 3.854,4.113 6.219,9.637 6.219,15.719 0,12.703 -10.297,23 -23,23 -6.081,0 -11.606,-2.364 -15.719,-6.219 4.16,4.144 9.883,6.719 16.219,6.719 12.703,0 23,-10.298 23,-23 0,-6.335 -2.575,-12.06 -6.719,-16.219 z" />
  <path
     inkscape:connector-curvature="0"
     id="path33"
     style="opacity:0.1"
     d="m 41.28,8.781 c 3.712,4.085 5.969,9.514 5.969,15.469 0,12.703 -10.297,23 -23,23 -5.954,0 -11.384,-2.256 -15.469,-5.969 4.113,3.854 9.637,6.219 15.719,6.219 12.703,0 23,-10.298 23,-23 0,-6.081 -2.364,-11.606 -6.219,-15.719 z" />
  <path
     inkscape:connector-curvature="0"
     id="path35"
     style="opacity:0.2"
     d="M 31.25,2.375 C 39.865,5.529 46,13.792 46,23.505 c 0,12.426 -10.07,22.5 -22.5,22.5 -9.708,0 -17.971,-6.135 -21.12,-14.75 a 23,23 0 0 0 44.875,-7 23,23 0 0 0 -16,-21.875 z" />
  <path
     inkscape:connector-curvature="0"
     id="path39"
     style="fill:url(#linearGradient4244);fill-opacity:1"
     d="M 24,1 C 36.703,1 47,11.297 47,24 47,36.703 36.703,47 24,47 11.297,47 1,36.703 1,24 1,11.297 11.297,1 24,1 Z" />
  <g
     id="g81">
    <path
       d="m 40.03 7.531 c 3.712 4.084 5.969 9.514 5.969 15.469 0 12.703 -10.297 23 -23 23 c -5.954 0 -11.384 -2.256 -15.469 -5.969 4.178 4.291 10.01 6.969 16.469 6.969 c 12.703 0 23 -10.298 23 -23 0 -6.462 -2.677 -12.291 -6.969 -16.469 z"
       style="opacity:0.1"
       id="path83" />
  </g>
  <path
     inkscape:connector-curvature="0"
     id="path4157"
     style="fill:#000000;fill-opacity:1;fill-rule:nonzero;stroke:none;opacity:0.1"
     d="m 26.907878,25.000854 5.201813,-9.065537 2.513662,9.065537 -2.513662,9.063461 -5.201813,-9.063461 z m -2.535409,1.472181 5.202654,9.064205 -9.060818,-2.342787 -6.545877,-6.721418 10.404041,0 z m 5.201443,-12.011116 -5.201443,9.06553 -10.404041,0 6.545877,-6.721775 9.059607,-2.343755 z M 36.999994,21.915761 33.826465,10 21.981328,13.193389 20.227937,16.304707 16.669873,16.278968 8,25.001696 l 8.669873,8.720659 4.26e-4,0 3.556433,-0.02656 1.755925,3.111302 L 33.826473,40 37,28.086409 35.197795,25.000852 37,21.915759" />
  <path
     d="m 25.907878,24.000854 5.201813,-9.065537 2.513662,9.065537 -2.513662,9.063461 -5.201813,-9.063461 z m -2.535409,1.472181 5.202654,9.064205 -9.060818,-2.342787 -6.545877,-6.721418 10.404041,0 z m 5.201443,-12.011116 -5.201443,9.06553 -10.404041,0 6.545877,-6.721775 9.059607,-2.343755 z M 35.999994,20.915761 32.826465,9 20.981328,12.193389 19.227937,15.304707 15.669873,15.278968 7,24.001696 l 8.669873,8.720659 4.26e-4,0 3.556433,-0.02656 1.755925,3.111302 L 32.826473,39 36,27.086409 34.197795,24.000852 36,20.915759"
     style="fill:#e8eef2;fill-opacity:1;fill-rule:nonzero;stroke:none"
     id="path24"
     inkscape:connector-curvature="0" />
</svg>

<svg xmlns="http://www.w3.org/2000/svg" viewBox="0 0 48 48">
 <defs>
  <linearGradient id="linearGradient4244" y1="1" x2="0" y2="47" gradientUnits="userSpaceOnUse">
   <stop style="stop-color:#2a3644;stop-opacity:1"/>
   <stop offset="1" style="stop-color:#222c38;stop-opacity:1"/>
  </linearGradient>
 </defs>
 <path d="m 36.31,5 c 5.859,4.062 9.688,10.831 9.688,18.5 0,12.426 -10.07,22.5 -22.5,22.5 -7.669,0 -14.438,-3.828 -18.5,-9.688 1.037,1.822 2.306,3.499 3.781,4.969 4.085,3.712 9.514,5.969 15.469,5.969 12.703,0 23,-10.298 23,-23 0,-5.954 -2.256,-11.384 -5.969,-15.469 C 39.81,7.306 38.132,6.037 36.31,5 Z m 4.969,3.781 c 3.854,4.113 6.219,9.637 6.219,15.719 0,12.703 -10.297,23 -23,23 -6.081,0 -11.606,-2.364 -15.719,-6.219 4.16,4.144 9.883,6.719 16.219,6.719 12.703,0 23,-10.298 23,-23 0,-6.335 -2.575,-12.06 -6.719,-16.219 z" style="opacity:0.05"/>
 <path d="m 41.28 8.781 c 3.712 4.085 5.969 9.514 5.969 15.469 0 12.703 -10.297 23 -23 23 -5.954 0 -11.384 -2.256 -15.469 -5.969 4.113 3.854 9.637 6.219 15.719 6.219 12.703 0 23 -10.298 23 -23 0 -6.081 -2.364 -11.606 -6.219 -15.719 z" style="opacity:0.1"/>
 <path d="M 31.25,2.375 C 39.865,5.529 46,13.792 46,23.505 c 0,12.426 -10.07,22.5 -22.5,22.5 -9.708,0 -17.971,-6.135 -21.12,-14.75 a 23,23 0 0 0 44.875,-7 23,23 0 0 0 -16,-21.875 z" style="opacity:0.2"/>
 <path d="M 24,1 C 36.703,1 47,11.297 47,24 47,36.703 36.703,47 24,47 11.297,47 1,36.703 1,24 1,11.297 11.297,1 24,1 Z" style="fill:url(#linearGradient4244);fill-opacity:1"/>
 <g>
  <path d="m 40.03 7.531 c 3.712 4.084 5.969 9.514 5.969 15.469 0 12.703 -10.297 23 -23 23 c -5.954 0 -11.384 -2.256 -15.469 -5.969 4.178 4.291 10.01 6.969 16.469 6.969 c 12.703 0 23 -10.298 23 -23 0 -6.462 -2.677 -12.291 -6.969 -16.469 z" style="opacity:0.1"/>
 </g>
 <path d="m 26.908 25 5.202 -9.07 2.514 9.07 -2.514 9.06 -5.202 -9.06 z m -2.535 1.472 5.203 9.06 -9.06 -2.343 -6.546 -6.721 10.404 0 z m 5.201 -12.01 -5.201 9.07 -10.404 0 6.546 -6.722 9.06 -2.344 z m 7.426 7.454 -3.174 -11.916 -11.845 3.193 -1.753 3.111 -3.558 -0.026 -8.67 8.723 l 8.67 8.721 0 0 3.556 -0.027 1.756 3.111 l 11.844 3.193 3.174 -11.914 -1.802 -3.086 1.802 -3.085" style="fill:#000;opacity:0.1;fill-opacity:1;stroke:none;fill-rule:nonzero"/>
 <path d="m 25.908 24 5.202 -9.07 2.514 9.07 -2.514 9.06 -5.202 -9.06 z m -2.535 1.472 5.203 9.06 -9.06 -2.343 -6.546 -6.721 10.404 0 z m 5.201 -12.01 -5.201 9.07 -10.404 0 6.546 -6.722 9.06 -2.344 z m 7.426 7.454 -3.174 -11.916 -11.845 3.193 -1.753 3.111 -3.558 -0.026 -8.67 8.723 l 8.67 8.721 0 0 3.556 -0.027 1.756 3.111 l 11.844 3.193 3.174 -11.914 -1.802 -3.086 1.802 -3.085" style="fill:#e8eef2;fill-opacity:1;stroke:none;fill-rule:nonzero"/>
</svg>
